src/images/svg-to-icon-sprite/instagram-logo.svg

<svg width="17" height="17" viewBox="0 0 17 17" fill="none" xmlns="http://www.w3.org/2000/svg">
<path d="M8.46413 1.52532C10.7236 1.52532 10.9916 1.53394 11.884 1.57484C12.7096 1.61252 13.1574 1.7503 13.4556 1.86656C13.8507 2.02049 14.1327 2.20348 14.4287 2.49951C14.7248 2.79553 14.9088 3.07757 15.0617 3.47263C15.1779 3.7708 15.3157 4.21861 15.3534 5.04425C15.3943 5.93663 15.4029 6.20465 15.4029 8.46412C15.4029 10.7236 15.3943 10.9916 15.3534 11.884C15.3157 12.7096 15.1779 13.1574 15.0617 13.4556C14.9078 13.8507 14.7248 14.1327 14.4287 14.4287C14.1327 14.7248 13.8507 14.9088 13.4556 15.0617C13.1574 15.178 12.7096 15.3157 11.884 15.3534C10.9916 15.3943 10.7236 15.4029 8.46413 15.4029C6.20466 15.4029 5.93662 15.3943 5.04424 15.3534C4.21861 15.3157 3.7708 15.178 3.47263 15.0617C3.07757 14.9078 2.79554 14.7248 2.49952 14.4287C2.20349 14.1327 2.01942 13.8507 1.86656 13.4556C1.75031 13.1574 1.61252 12.7096 1.57485 11.884C1.53394 10.9916 1.52533 10.7236 1.52533 8.46412C1.52533 6.20465 1.53394 5.93663 1.57485 5.04425C1.61252 4.21861 1.75031 3.7708 1.86656 3.47263C2.0205 3.07757 2.20349 2.79553 2.49952 2.49951C2.79554 2.20348 3.07757 2.01941 3.47263 1.86656C3.7708 1.7503 4.21861 1.61252 5.04424 1.57484C5.93662 1.53394 6.20466 1.52532 8.46413 1.52532ZM8.46413 0C6.16591 0 5.87742 0.0096849 4.97428 0.05059C4.07329 0.0914951 3.45863 0.234669 2.91933 0.4435C2.36281 0.659867 1.89025 0.949429 1.41984 1.41984C0.949429 1.89025 0.659864 2.36281 0.443497 2.91934C0.234666 3.45756 0.0914982 4.07329 0.0505931 4.97428C0.00968798 5.87742 0 6.16482 0 8.46412C0 10.7623 0.00968798 11.0508 0.0505931 11.954C0.0914982 12.855 0.234666 13.4696 0.443497 14.0089C0.659864 14.5654 0.949429 15.038 1.41984 15.5084C1.89025 15.9788 2.36281 16.2684 2.91933 16.4848C3.45756 16.6936 4.07329 16.8368 4.97428 16.8777C5.87742 16.9186 6.16483 16.9283 8.46413 16.9283C10.7634 16.9283 11.0508 16.9186 11.954 16.8777C12.855 16.8368 13.4696 16.6936 14.0089 16.4848C14.5654 16.2684 15.038 15.9788 15.5084 15.5084C15.9788 15.038 16.2684 14.5654 16.4848 14.0089C16.6936 13.4707 16.8368 12.855 16.8777 11.954C16.9186 11.0508 16.9283 10.7634 16.9283 8.46412C16.9283 6.1659 16.9186 5.87742 16.8777 4.97428C16.8368 4.07329 16.6936 3.45864 16.4848 2.91934C16.2684 2.36281 15.9788 1.89025 15.5084 1.41984C15.038 0.949429 14.5654 0.659867 14.0089 0.4435C13.4707 0.234669 12.855 0.0914951 11.954 0.05059C11.0508 0.0096849 10.7623 0 8.46413 0Z" fill="black"/>
<path d="M8.46402 4.11768C6.06353 4.11768 4.11731 6.0639 4.11731 8.46331C4.11731 10.8638 6.06353 12.81 8.46402 12.81C10.8645 12.81 12.8107 10.8638 12.8107 8.46331C12.8107 6.0639 10.8645 4.11768 8.46402 4.11768ZM8.46402 11.2847C6.90639 11.2847 5.64264 10.022 5.64264 8.46331C5.64264 6.90568 6.90532 5.64193 8.46402 5.64193C10.0216 5.64193 11.2854 6.90461 11.2854 8.46331C11.2854 10.022 10.0216 11.2847 8.46402 11.2847Z" fill="black"/>
<path d="M12.9819 4.96036C13.5425 4.96036 13.997 4.50588 13.997 3.94526C13.997 3.38464 13.5425 2.93018 12.9819 2.93018C12.4213 2.93018 11.9668 3.38464 11.9668 3.94526C11.9668 4.50588 12.4213 4.96036 12.9819 4.96036Z" fill="black"/>
</svg>

<svg width="17" height="17" fill="none" xmlns="http://www.w3.org/2000/svg"><path d="M8.464 1.525c2.26 0 2.528.009 3.42.05.826.038 1.273.175 1.572.292.395.153.677.336.973.633.296.296.48.578.633.973.116.298.254.746.291 1.571.041.893.05 1.16.05 3.42s-.009 2.528-.05 3.42c-.037.826-.175 1.273-.291 1.572a2.625 2.625 0 0 1-.633.973c-.296.296-.578.48-.973.633-.299.116-.746.254-1.572.291-.892.041-1.16.05-3.42.05s-2.527-.009-3.42-.05c-.825-.037-1.273-.175-1.571-.291a2.626 2.626 0 0 1-.973-.633 2.613 2.613 0 0 1-.633-.973c-.117-.299-.254-.746-.292-1.572-.041-.892-.05-1.16-.05-3.42s.009-2.527.05-3.42c.038-.825.175-1.273.292-1.571.154-.395.336-.677.633-.973.296-.297.578-.48.973-.633.298-.117.746-.254 1.571-.292.893-.041 1.16-.05 3.42-.05Zm0-1.525c-2.298 0-2.587.01-3.49.05-.9.041-1.515.185-2.055.393a4.152 4.152 0 0 0-1.5.977c-.47.47-.76.943-.976 1.5-.208.538-.352 1.153-.392 2.054C.01 5.877 0 6.164 0 8.464c0 2.298.01 2.587.05 3.49.041.901.185 1.516.393 2.055.217.556.506 1.029.977 1.5.47.47.943.76 1.5.976.538.209 1.153.352 2.054.393.903.04 1.19.05 3.49.05 2.3 0 2.587-.01 3.49-.05.901-.041 1.516-.184 2.055-.393a4.153 4.153 0 0 0 1.5-.977c.47-.47.76-.943.976-1.5.209-.537.352-1.153.393-2.054.04-.903.05-1.19.05-3.49 0-2.298-.01-2.587-.05-3.49-.041-.9-.184-1.515-.393-2.055a4.153 4.153 0 0 0-.977-1.5c-.47-.47-.943-.76-1.5-.976-.537-.208-1.153-.352-2.054-.392C11.051.01 10.762 0 8.464 0Z" fill="#000"/><path d="M8.464 4.118a4.347 4.347 0 1 0 0 8.693 4.347 4.347 0 0 0 0-8.693Zm0 7.167a2.821 2.821 0 1 1 0-5.643 2.821 2.821 0 0 1 0 5.643ZM12.982 4.96a1.015 1.015 0 1 0 0-2.03 1.015 1.015 0 0 0 0 2.03Z" fill="#000"/></svg>
